X:1
T:Complaint
T:D minor            Asahel Benham, 1790
T:Transcribed from Benham's Federal Harmony, 1793.
T:Isaac Watts, 1717 (Psalm 55, Part 1)                    86. 86. (C. M.)
%%score [ 1 2 3 4 ]
L:1/8
Q:1/4=100
M:3/2
K:F
V:1 treble nm="Tr." snm="Tr."
V:2 treble nm="C." snm="C."
V:3 treble-8 nm="T." snm="T."
V:4 bass nm="B." snm="B."
V:1
"_1. O      were _____  I _____    like   a     fea       –      thered  dove, And  in – no  – cence  had  wings, I'd       fly, __________________________________________  and\n2. Let    me ______  to ____  some wild  de       –       sert        go,   And  find  a      peace –ful  home; Where storms _______________________________________  of" A4 | %1
 (F3 G A4) (c2 A2) | G8 A4 | (A3 B c4) (A2 f2) | c8 c4 | B8 (A2 F2) | G8 G4 | A8 c4 | %8
[M:4/4] (A3 c f2 c2 | f2 d>c A2 F2 | c2 Bc d2) de | %11
"_1. make a long _______ re  –  move  From  all             these  rest         –        less  things, From  all _____ these    rest      –        –        –        –        –      less  things.\n2. ma–lice ne        –        ver    blow,  Temp – ta      –     tions  ne           –        ver   come,  Temp – ta     –    tions    ne        –        –        –        –        –      ver   come." f2 f2 (e3 d | %12
 c6) A2 | G6 F2 | d8 | c4 (A3 G | F4) c4 | c6 A2 | (B3 c d2) dc | (A2 f2 e3 c | A3 d c>d) e2 | %21
 d8 |] %22
V:2
"_3. By    mor       –      ning        light  I'll   seek ______  his      face,  At  noon  re  –  peat   my      cry;  The      night ________________________________________  shall\n4. God  shall             pre    –    serve  my  soul ______  from   fear,  Or shield  me  when   a  –   fraid;  Ten      thou     –        –        –        –        –        –        –        –     sand" D4 | %1
 F8 (C3 D) | E8 E4 | (F3 G A4) (E2 F2) | G8 F4 | D8 A4 | G8 E4 | F8 F4 |[M:4/4] (F6 FG | A8- | %10
 A2 BG F2) F2 | %11
"_3. hear me ask _______  his    grace,   Nor  will             he     long _________ de  –  ny,   Nor   will           he         long ________________________   de  –  ny.\n4. an–gels must ______   ap  –  pear,    If     he              command _________  their  aid,   If      he            com  –  mand _______________________  their   aid." B2 B2 A4- | %12
 A6 F2 | E6 F2 | G8 | G4 F4- | F4 E4 | F6 F2 | F6 D2 | (E3 F G4 | A6) A2 | A8 |] %22
V:3
"_5.  I      cast               my           burdens   on _______  the     Lord, The Lord  sus – tains  them   all;   My      cou      –        –        –        –        –        –        –        –     rage\n6. My   high      –      est        hopes shall  not ______  be       vain,  My  lips  shall spread his praise;   While  cru      –        –        –        –        –        –        –        –       el" A4 | %1
 A8 (G2 F2) | c8 c4 | (d3 e f4) (e2 A2) | G8 A4 | d8 c4 | e8 (A2 G2) | F8 A4 |[M:4/4] (c3 d c2 f2 | %9
 c2 de !wedge!f2 !wedge!f2 | f>g fe f2) A2 | %11
"_5. rests upon ________   his   word,  That saints _____ shall  ne          –         ver   fall,    That  saints ___  shall    ne     –        –        –        –        –        ver     fall.\n6. and de – ceit        –      ful    men  Scarce live ______  out    half _______ their  days,   Scarce live ____  out     half _________________________  their  days." d2 d2 e4- | %12
 e6 cA | c6 A2 | (B3 c d4) | e4 (3((f2 d2 c2) | d4) G4 | A6 c2 | (d3 e f2) f2 | (ec A2 c3 d | %20
 c3 A FG) A2 | d8 |] %22
V:4
 D,4 | (D,3 E, F,4) (D,2 F,2) | C,8 A,,4 | (D,3 C, F,4) (A,,2 D,2) | C,8 F,4 | G,8 A,4 | C8 C,4 | %7
 F,8 F,4 |[M:4/4] (F,8- | F,8 | F,2 G,A, B,2) B,2 | %11
"_________________________________________________________________\nEdited by B. C. Johnston, 2018. Whole piece transposed down from e to d." G,2 G,2 A,4- | %12
 A,6 F,D, | C,6 D,2 | G,8 | C,4 (F,4 | B,,4) C,4 | F,6 F,2 | B,6 B,2 | (C4 C,4 | F,3 G, A,2) A,2 | %21
 D,8 |] %22

